X: 171
U:~=!turn!
M:C|
L:1/8
K:Bb
e !segno!| dB B/B/B FBDe | dB B/B/B (dB)(fe) | dB B/B/B (FB)(DB) | {/F}GEFD CDE :|
(DB,)(FB,) GB,FB, | (DB,)FB, DEFe | dBcA ~BGFD | GEFD CDE ||
|: e | dB B/B/B FBDe | dB B/B/B (dB)fe | dB B/B/B (FB)(DB) | GEFD CDE :|
e | TdBfB gBfe | dBfB (de)(fb) | dBfB gBfd | gefd (cd)(eg) |
dBfB gBfe | dBfB (de)(fb) | dbfd bdfb | gefd (cd)(eg) !segno! |]


